X: 1
T: Grimstock
O: Cecil Sharp, 1911
M: 6/8
L: 1/8
Q: 96
R: Jig
P: (AAB)3
K: A
|: "A"a2e a2e | "F#m"f>ga "E7"g2e | "A"c>de "D"f2e | "Bm"dec "E7"B2"A"A | "A"a2e a2e | "F#m"f>ga "E7"g2e |
| "A"c>de "D"f2e | "E7"d>cB "A"A3 :: "A"AAB cAB | cAB cA"(E)"E | "A"AAB cAB | "E7"cAB "A"A3 :|
